X:1
T:Etienne Venier - Infected Mushroom - Yamakas In Space
T:Etienne Venier - Infected Mushroom - Yamakas In Space
%%score { 1 | 2 }
L:1/8
Q:1/4=125
M:4/4
K:Eb
V:1 treble nm="Piano"
V:2 bass 
V:1
 C8 | [Cc]8 | z8 | z8 | C8 | [Cc]8 | z8 | z8 | C4 z4 | [Cc] z4 z2 z | z8 | G8 | C z4 z2 z | z8 | %14
 [Ac]4 z4 | z8 | CC G2 C G2 C | E2 C A2 C A2 | C z2 C z2 C z | E [Cc]2 D2 z [Cc]C | %20
 CC G2 [Cc] G2 [Cc] | E2 C [Aa]2 C[Aa]A | C z2 C z2 CC | E [Cc]2 D2 z CC | Ccgb [cc'] g2 [cc'] | %25
 E2 [cc'] a2 [cc'] a2 | [DAcc'] [=B=b]2 c [Bb]2 [cc']B | [De] [cc']2 [dd']2 [DAa][cc'][cc'] | %28
 [CAc]cgb [cc'] g2 c | E2 [cc'] a2 c a2 | [Dc] [=B=b]2 c [Bb]2 c[Bb] | %31
 [De] c2 [dbd']2 [Aa] [cc']c/ z/ | dcGe [EGe][cc'][Cd]c | dc[CG]e [EG][cc'][Cd][cc'] | %34
 [=B=b][Fc'] z [Bb] [DF] z [Bb][Gg] | [Aa][Gg]a[cc'] DA[dd'][cc'] | dc[CG]e [EG][cc'][Cdd']c | %37
 [dd']c[CGc]e [EG][cc'][Cdd']c | [=B=b]F z [Bb] [DF] z [Bb]G | AGAc D[Ga][dd']c | %40
 [Cd][cc'] G/C/e [EG]c[Cdd'][Gc] | d[Ccd][CG]e [EG][cc'][Cdd'][cc'] | %42
 [=B=b]F z [Bb] [DF] z [Bb][Gg] | AGA[cc'] D[ga][dd'][cgc'] | dc[CGcg]e [EGeg][cgc'][Cdgd'][cgc'] | %45
 [dd']c/c/ [CG]e [EG][cc'][Cdd'][cc'] | [=B=b][Ff] z [Bb] [DF] z [Bb]/ z/ [Gg] | %47
 [Aa][Gg]a[cc'] D[Aa][Cdd'][cc'] | z GE[Gg] DGCG | DGEG DGCG- | G z Cg z4 | z8 | z8 | z2 C z4 z | %54
 z8 | z4 z2 z D/E/ | G3 z4 C | A3/2G3/2 E4- E | F3 z4 C | G B2 [Cc]3- [Cc]/D/E/F/ | G3 b z2 z C | %61
 AA<GE z4 | F3 z4 z | [Ff]3/2G3/2E z2 z D/E/ | [Gg]3 z4 [Cc] | A G2 [Ec]4- [Ec] | %66
 [DFd]4- [DFd]/ z2 z/ [Cc] | G2 z [Cc]3- [Cc]/D/E/F/ | [CG]3 C4 C | [Aa]3/2[cc']3/2[CG]3/2C z2 z/ | %70
 F6- F z | [Ffc']3/2G3/2 E4 [CD]/E/ | [Gg]3 [Cc]4 [Cc] | [Aa]3/2G3/2 [Eceg]4- [Eceg] | F3 z4 C | %75
 G/ z2 z C3 D/E/F/ | [Gg]3 z/ C3- C/[Cc] | A3/2c3/2 [CGcg]4- [CGcg] | F6- F z | F3/2[Gg]3/2 E4- E | %80
 b2 [Cc]2 z2 [Cc]2 | b2 [Cc]2 z2 C2 | z8 | z2 [CA]2 z2 [Cc]2 | z2 C2 z2 [Cc]2 | b2 [Cc]2 z2 C2 | %86
 z8 | C2 [CAc]2 z2 C2 | z2 [Cc]2 z z/ [ee']/ [Cc]<[dd'] | [cc']>[Bbc'] C[Gg] z2 [CFcf]2 | %90
 z4 F[ee'] z/ [dd']3/2 | f>g C[cc'] z2 [CA]2 | b2 [Cc]2 z [ee'][Cc][dd'] | %93
 [cc']>[Bb] C[Gg] z2 [CFcf]2 | z4 z z/ [ee']/ z/ [dd']3/2 | [Cf]>g C[dd'] z2 [Ccc']c | %96
 z2 [Cc]2 z [ee'][Cc][dd'] | [cc'][Bbb']C[Gg] z2 [CFf]2 | z4 z [ee'] z/ [dd']3/2 | %99
 [Cf]>g C[cc'] z2 C2 | b3/2 z/ [Cc]2 z [ee'] [Cc]<[dd'] | [cc']>[Bb] C[Gg] z2 [CFcf]2 | %102
 z4 z [ee'] z/ d/d' | f>g C[dd'] z2 [Ccc']2- | [Ccc']/ z4 z z/ e'2 | d'2 c'<C g4 | g3- g<f z2 z | %107
 z4 e'2 d'2 | f'2 g'2 c'4- | c'3 z4 z | z2 e'2 d'2 [Ccc']2 | b2 g4 f2- | f z4 z2 z | %113
 e'2 d'2 f'2 g'2 | d'3- d'/ c'2- c'/ [CE]2- | [CE]4 e'<e'' d'<d'' | %116
 [CGcc'c'']2 [bb']>g g'2- g'/ff'/- | f'2 [DFB]6 | e<e' d<d' f<[Cf'] g<g' | %119
 c/ c'4- c'3/2 [CEAce]2- | [CEAce]4 [Ce'e'']2 d'<d'' | [CEGcc']<c'' [bb']>g g'3- g'/f/ | %122
 f'2 B/ [DF]4- [DF]3/2 | e''2 d'/d''f'/ [CAf'']3/2 g'2 d'/ | d''3 [c'c'']4- [c'c''] | %125
 z2 C[Aa] [Cc]E[Aa][Bb] | [Aa]G [Ee]/c/[Gg] [CGc][Ee][Gg]C | FE z [Bb] z EF z | GFCE z [Cc]EC | %129
 z EC z [Cc]E[Aa][EBb] | [Aa]G[Cc][Gg] C/ z/ E GC | F z [Ee][Bb] FE[Bb] z | %132
 [Ccc'][Bb]/ z/ FA z [Cc]EF | A c6- c- | c8 | %135
V:2
 [C,,C,E,G,]8 | [C,E,A,]8 | [C,,C,D,F,A,=B,]8 | [C,,D,=B,]8 | [C,,C,E,]8 | [C,,C,E,A,]8 | %6
 [C,D,F,A,=B,]8 | [C,D,=B,]8 | [C,,C,E,]4 G,,4 | [C,,A,,C,E,A,] A,,3 [A,,=E,]4 | %10
 [C,,C,D,F,A,=B,]4 =E,4 | [C,,C,D,=E,=B,]8 | [C,,C,E,G,] C,3 C,,4 | [C,E,A,]8 | %14
 [C,,C,D,F,A,=B,]4 [G,,=E,]4 | [C,,G,,C,D,=B,] [D,B,]6- [D,B,] | [C,E,] z4 z2 z | [C,E,A,]2 z4 z2 | %18
 C,=B,<A, z B,2 z B, | [C,G,] z4 A, z2 | [C,E,G,] z4 z2 z | [C,E,A,]2 z4 z2 | %22
 [C,F,] =B,2 z B,2 z B, | [C,G,=B,] z4 A, z2 | [C,E,G,] z2 C,, z4 | [C,E,A,]2 z [C,,C,]2 z2 z | %26
 [C,F,A,=B,] z2 [C,,C,] z4 | [C,G,=B,] z2 [C,,C,]2 z2 z | [C,E,G,] z2 [C,,C,] z4 | %29
 [C,E,A,]2 z [C,,C,]2 z2 z | [F,A,=B,] z2 C,, z4 | [C,G,=B,] z2 [C,,C,]2 z2 z/ C,/ | %32
 C,G, z G, z G, z G, | C,A, z A, z A, z A, | C,A,=B,A, z A,B,A, | [C,A,]G,=B,G, z G,B,G, | %36
 C,G, z G, z G,C,G, | C,A, z A, z A, z A, | C,A,=B,A, z A,B,A, | C,G,=B,G, z G,B,G, | %40
 C,G, z G, z G, z G, | C,A, z A, z A, z A, | C,A,=B,A, z A,B,A, | C,G,=B,G, z G,B,G, | %44
 C,G, z G, z G, z G, | C,A,/ z z/ A, z A, z A, | C,A,=B,A, z A, z/ B,/A, | C,G,=B,G, z G, z G, | %48
 C, z4 z2 z | C, z4 z2 z | z G, z G, E,G,D,G, | [C,,C,]G,D,G, E,G,D,G, | %52
 [C,,C,]2- [C,,C,]/C,/ [C,,C,]4 C,- | C,C,C, C,3 C,C, | [C,,C,]3 [C,,C,]4 [C,,C,]- | %55
 [C,,C,]<C, C,C,/ C,,3- C,,/ z | [C,,C,]3 [C,,C,] G,,3 z | C,,3/2 z z/ [C,,C,]4- [C,,C,] | %58
 C,,3 C,,4 z | [C,,C,] B,2 C,,3- C,,/ z z/ | [C,,C,]3 [C,,C,] G,,3 z | C,, z2 C,, G,,4 | %62
 C,,3 C,,4 B, | C,,3/2 z z/ C,, G,,3 z | [C,,C,]3 E,4 z | [E,G,] z2 [C,E,]4- [C,E,] | %66
 [B,,D,F,]4- [B,,D,F,]/ F,2- F,/ z | [A,,C,E,A,]2 B, E,3- E,/ z z/ | [C,E,G,]3 [C,E,G,]4 z | %69
 [C,E,G,]3/2 z z/ [C,E,G,]3/2 z E,2- E,/ | [D,,B,,F,]6- [D,,B,,F,]B, | [F,,A,,C,F,]3/2 z4 z2 z/ | %72
 [C,E,G,]3 [C,E,G,]4 z | [C,,C,]3/2 z z/ [C,E,G,]4- [C,E,G,] | [B,,,B,,]3 [B,,D,F,]3 F, z | %75
 C,/[A,,E,A,] B,2 [C,E,A,]3 z z/ | [C,E,G,]3 [C,G,]/ z4 z/ | C,,3/2 z z/ E,4- E, | %78
 [D,,B,,F,]6- [D,,B,,F,]B, | [F,,A,,C,F,]3/2 z4 z2 z/ | [C,,C,]2 [E,G,]2 C,2 [E,G,]2 | %81
 C,,2 [E,G,]2 C,2 [E,G,]2 | B,,,2 [D,F,B,]2 B,,2 [D,F,B,]2 | F,,2 [F,A,]2 C,2 [F,A,]2 | %84
 C,,2 [E,G,]2 C,2 [E,G,]2 | C,,2 [E,G,]2 C,2 [E,G,]2 | [B,,,F,]2 [D,F,B,][D,F,] B,,2 [D,F,B,]2 | %87
 [F,,F,]2 [F,A,]2 C,2 [F,A,]2 | C,,2 [E,G,]2 C,3/2 z/ [E,G,]/ z z/ | %89
 C,,3/2 z/ [E,G,] z C,2 [E,G,]2 | B,,,2 [D,F,B,]2 B,, z [F,B,]/ z z/ | F,,3/2 z/ A, z C,2 [F,A,]2 | %92
 [C,,C,]2 [E,G,]2 C, z [E,G,] z | C,,3/2 z/ [E,G,] z C,2 E,2 | %94
 B,,,2 [D,F,B,]2 B,,3/2 z/ [F,B,]/ z z/ | [F,,F,]3/2 z/ [F,A,] z C,2 [F,A,] z | %96
 [C,,C,]2 [E,G,]2 C, z [E,G,] z | C,, z E, z C,2 E,2 | B,,,2 [B,,D,F,B,]2 B,,B, [F,B,]/ z z/ | %99
 F,,3/2 z/ [F,A,] z C,2 [F,A,]2 | C,,>C, [E,G,]2 C, z [E,G,]/ z z/ | C,,3/2 z/ [E,G,] z C,2 E,2 | %102
 B,,,2 [D,F,B,]2 B,, z [F,B,]/ z z/ | F,,3/2 z/ A, z C,2 [F,A,]2- | %104
 [F,A,]/ [A,,C,E,A,]4- [A,,C,E,A,]3/2 z2 | z2 z/ [C,E,G,]3/2 z4 | z4 z [B,,D,F,]3- | %107
 [B,,D,F,]4 z4 | [F,,A,,C,]2 z4 z2 | z2 z [A,,C,E,]4- [A,,C,E,]- | [A,,C,E,]2 z4 [C,G,]2 | z8 | %112
 z [B,,D,F,B,]6- [B,,D,F,B,] | z4 [F,,A,,C,]2 z2 | z4 z2 A,2- | A,4 z4 | z8 | z2 B,6 | %118
 z4 z/ [F,A,]3/2 z2 | z4 z2 A,2- | A,4 z4 | z8 | z2 z/ [B,,B,]4- [B,,B,]3/2 | z4 F,3/2 z2 z/ | z8 | %125
 A,,E, z E, z E,A, z | C,G, z G, z2 G, z | B,,F,B, z [F,B,] z2 B, | F,,C, z C, A, z2 z | %129
 A,,E, z E, z4 | C,E,G, z z/ C,/ z [C,,C,] z | [B,,,B,,]B, z2 [B,,B,] z2 B, | %132
 F,, z/ C,/ z2 A, z2 z | z8 | z8 | %135

